!!!COM: Music21
!!!OTL: Alalá
!!!OMV: pezas_alalas_alala-15_alala-partitura.musicxml
**kern
*I"Bagpipes
*I'Bag
*clefG^2
*k[]
*M4/4
*met(c)
=1
!LO:TX:a:t=Allegretto
*MM120
!LO:TX:a:t=[quarter]=120
1aa
=
1ccc
=
1ccc
=
1bb
=
1ccc
=
1bb
=
1aa
=
1gg#X;
=
1aa
=
1ccc
=
1ccc
=
1bb
=
1ccc
=
1bb
=
1ccc
=
1bb
!!linebreak:original
=
1aa
=
1gg#X;
=
1aa
=
1ccc
=
1ccc
=
1bb
=
1ccc
=
1bb
=
1aa
=
1bb;
=
[1aa;
=
4aa]
4r
2r
=
1r
=
1r
=
*-
